img/svg/next.svg

<svg xmlns="http://www.w3.org/2000/svg" preserveAspectRatio="xMidYMid" width="34" height="34" viewBox="0 0 34 34"><defs><style>.cls-2 { fill: #ffffff; }</style></defs><path d="M16.984 33.969c-9.365 0-16.984-7.62-16.984-16.985 0-9.365 7.619-16.984 16.984-16.984 9.365 0 16.985 7.619 16.985 16.984 0 9.365-7.62 16.985-16.985 16.985zm0-30.95c-7.7 0-13.965 6.265-13.965 13.965 0 7.701 6.265 13.965 13.965 13.965 7.701 0 13.965-6.264 13.965-13.965 0-7.7-6.264-13.965-13.965-13.965zm-.567 20.404c-.295.295-.681.442-1.068.442-.386 0-.772-.147-1.067-.442-.59-.59-.59-1.545 0-2.135l4.808-4.808-4.808-4.808c-.59-.589-.59-1.545 0-2.135.59-.589 1.545-.589 2.135 0l5.875 5.876c.59.589.59 1.545 0 2.134l-5.875 5.876z" id="path-1" class="cls-2" fill-rule="evenodd"/></svg>

<svg xmlns="http://www.w3.org/2000/svg" xmlns:xlink="http://www.w3.org/1999/xlink" preserveAspectRatio="xMidYMid" width="34" height="34" viewBox="0 0 34 34">
  <defs>
    <style>

      .cls-2 {
        fill: #ffffff;
      }
    </style>
  </defs>
  <path d="M16.984,33.969 C7.619,33.969 -0.000,26.349 -0.000,16.984 C-0.000,7.619 7.619,-0.000 16.984,-0.000 C26.349,-0.000 33.969,7.619 33.969,16.984 C33.969,26.349 26.349,33.969 16.984,33.969 ZM16.984,3.019 C9.284,3.019 3.019,9.284 3.019,16.984 C3.019,24.685 9.284,30.949 16.984,30.949 C24.685,30.949 30.949,24.685 30.949,16.984 C30.949,9.284 24.685,3.019 16.984,3.019 ZM16.417,23.423 C16.122,23.718 15.736,23.865 15.349,23.865 C14.963,23.865 14.577,23.718 14.282,23.423 C13.692,22.833 13.692,21.878 14.282,21.288 C14.282,21.288 19.090,16.480 19.090,16.480 C19.090,16.480 14.282,11.672 14.282,11.672 C13.692,11.083 13.692,10.127 14.282,9.537 C14.872,8.948 15.827,8.948 16.417,9.537 C16.417,9.537 22.292,15.413 22.292,15.413 C22.882,16.002 22.882,16.958 22.292,17.547 C22.292,17.547 16.417,23.423 16.417,23.423 Z" id="path-1" class="cls-2" fill-rule="evenodd"/>
</svg>
